static/images/gopher-side_color.svg

<svg xmlns="http://www.w3.org/2000/svg" viewBox="0 0 397.8 535.6"><path fill="#E0DEDC" d="M68.5 64s-45.3-8-56.4 40.2c-11.7 50.6 27 46.7 27 46.7L68.5 64z"/><path fill="#040000" stroke="#040000" stroke-miterlimit="10" stroke-width="1.348" d="M23.9 86.2c-8.5-.3-15.5 25.8-13.1 35.2.9 3.5 10 6.3 14-3.7 2.9-7.3 9.7-31.2-.9-31.5z"/><path fill="#FFF" d="M17.6 94c-1.9-.6-4 4.5-4.7 6.3-1.8 5.3 2.1 5.1 4.4 2 1.2-1.6 2.2-7.6.3-8.3z"/><path fill="#B8937F" d="M46.3 487.8c5.2 7.3 41.6 6.4 46.1-1.3 4.2-7.1-21.4-14.9-30.7-16.1-14.1-1.8-19.1 12.1-15.4 17.4zM351 446c5.2 7.3 29.4 3.7 34-4 4.2-7.1-9.3-12.2-18.6-13.4-14.1-1.8-19.1 12.1-15.4 17.4z"/><path fill="#8CC5E7" d="M189.6 13.4S7.5 4.5 28.6 231c6.3 68-43.8 182.8 29.2 239.8 0 0 102.1 61.7 238.9 41.5 20-3 45.5-10 63.2-57.1 22.3-59.5 6.6-121.5-13.2-165.5-22.3-49.7-21.2-105.8-19.6-115.3 27.2-160.2-137.5-161-137.5-161z"/><path fill="#8CC5E7" d="M282.3 38.8c19.2-5 32.6-10.5 43.4-5 30.5 15.7-4.9 45.4-12.4 51-11 8.4-44.9-42.4-31-46z"/><path fill="#3C89BF" d="M306 40.5c-18.8 4.2-19.6 13.7-14.8 16.4 2.8 1.6.8-8.1 13.6-3.8 5.2 1.7-2.5 14.3 12.1.2 7.8-7.7-6.8-13.7-10.9-12.8z"/><path fill="#E0DEDC" d="M137.9 29.2c-22.9 1.7-76.1 28.5-50 94.2 9.1 23 104.6 10.3 105.8-54 .4-26.8-35.6-41.7-55.8-40.2z"/><path fill="#040000" stroke="#040000" stroke-miterlimit="10" stroke-width="1.348" d="M109.9 51.8C88.5 53.7 83.3 84 91.3 91.1c4.5 4 20.1 8.6 28.5-19 2.7-8.8-2-21.1-9.9-20.3z"/><path fill="#FFF" d="M101.7 57.4c-3.1-.9-8.8 7-7.1 10.3.6 1.2 3.2 2.9 5.3 1.3 2.3-1.8 7.9-9.9 1.8-11.6z"/><path fill="#B8937F" d="M74.6 130.1C34.9 122.3 30 165 43.9 172.3c10.1 5.4 38.8-3.5 43.6-13.4 4.7-10 7.5-24.8-12.9-28.8z"/><path fill="#040000" d="M48 126.4c-12.5 4.3-11.8 25.4-5.1 26 7.6.7 21-14.7 24.2-20.9 2.4-4.6-14.1-6.8-19.1-5.1z"/><path fill="#E0DEDC" d="M52.5 169.9c-3.2 1.4-2.9 18.8 3.3 21.5 19.6 8.3 20.9-20.4 17.1-24.9-2.9-3.6-18.2 2.4-20.4 3.4z"/><path fill="#B8937F" d="M272 269.2c-11.2.5-19.7 23.3-16.9 34.3 1.5 5.9 12.9 5 11.3 9.6-2.7 7.6 17.4 12.9 21.2 4.7 19.3-40.8-5.3-49-15.6-48.6zm-20.2 228.2c-39.7-4.3-51.7 14.7-44.4 21.8 7.7 7.5 38.1 5.3 54.7 3.9 6.6-.5-.3-24.6-10.3-25.7z"/></svg>

<?xml version="1.0" encoding="utf-8"?>
<!-- Generator: Adobe Illustrator 18.1.0, SVG Export Plug-In . SVG Version: 6.00 Build 0)  -->
<svg version="1.1" id="レイヤー_1" xmlns="http://www.w3.org/2000/svg" xmlns:xlink="http://www.w3.org/1999/xlink" x="0px"
	 y="0px" viewBox="0 0 397.8 535.6" enable-background="new 0 0 397.8 535.6" xml:space="preserve">
<g>
	<path fill="#E0DEDC" d="M68.5,64c0,0-45.3-8-56.4,40.2c-11.7,50.6,27,46.7,27,46.7L68.5,64z"/>
	<g>
		<path fill="#040000" stroke="#040000" stroke-width="1.3483" stroke-miterlimit="10" d="M23.9,86.2c-8.5-0.3-15.5,25.8-13.1,35.2
			c0.9,3.5,10,6.3,14-3.7C27.7,110.4,34.5,86.5,23.9,86.2z"/>
		<path fill="#FFFFFF" d="M17.6,94c-1.9-0.6-4,4.5-4.7,6.3c-1.8,5.3,2.1,5.1,4.4,2C18.5,100.7,19.5,94.7,17.6,94z"/>
	</g>
	<path fill="#B8937F" d="M46.3,487.8c5.2,7.3,41.6,6.4,46.1-1.3c4.2-7.1-21.4-14.9-30.7-16.1C47.6,468.6,42.6,482.5,46.3,487.8z"/>
	<path fill="#B8937F" d="M351,446c5.2,7.3,29.4,3.7,34-4c4.2-7.1-9.3-12.2-18.6-13.4C352.3,426.8,347.3,440.7,351,446z"/>
	<path fill="#8CC5E7" d="M189.6,13.4c0,0-182.1-8.9-161,217.6c6.3,68-43.8,182.8,29.2,239.8c0,0,102.1,61.7,238.9,41.5
		c20-3,45.5-10,63.2-57.1c22.3-59.5,6.6-121.5-13.2-165.5c-22.3-49.7-21.2-105.8-19.6-115.3C354.3,14.2,189.6,13.4,189.6,13.4z"/>
	<path fill="#8CC5E7" d="M282.3,38.8c19.2-5,32.6-10.5,43.4-5c30.5,15.7-4.9,45.4-12.4,51C302.3,93.2,268.4,42.4,282.3,38.8z"/>
	<path fill="#3C89BF" d="M306,40.5c-18.8,4.2-19.6,13.7-14.8,16.4c2.8,1.6,0.8-8.1,13.6-3.8c5.2,1.7-2.5,14.3,12.1,0.2
		C324.7,45.6,310.1,39.6,306,40.5z"/>
	<path fill="#E0DEDC" d="M137.9,29.2c-22.9,1.7-76.1,28.5-50,94.2c9.1,23,104.6,10.3,105.8-54C194.1,42.6,158.1,27.7,137.9,29.2z"/>
	<path fill="#040000" stroke="#040000" stroke-width="1.3483" stroke-miterlimit="10" d="M109.9,51.8C88.5,53.7,83.3,84,91.3,91.1
		c4.5,4,20.1,8.6,28.5-19C122.5,63.3,117.8,51,109.9,51.8z"/>
	<path fill="#FFFFFF" d="M101.7,57.4c-3.1-0.9-8.8,7-7.1,10.3c0.6,1.2,3.2,2.9,5.3,1.3C102.2,67.2,107.8,59.1,101.7,57.4z"/>
	<path fill="#B8937F" d="M74.6,130.1C34.9,122.3,30,165,43.9,172.3c10.1,5.4,38.8-3.5,43.6-13.4C92.2,148.9,95,134.1,74.6,130.1z"/>
	<path fill="#040000" d="M48,126.4c-12.5,4.3-11.8,25.4-5.1,26c7.6,0.7,21-14.7,24.2-20.9C69.5,126.9,53,124.7,48,126.4z"/>
	<path fill="#E0DEDC" d="M52.5,169.9c-3.2,1.4-2.9,18.8,3.3,21.5c19.6,8.3,20.9-20.4,17.1-24.9C70,162.9,54.7,168.9,52.5,169.9z"/>
	<path fill="#B8937F" d="M272,269.2c-11.2,0.5-19.7,23.3-16.9,34.3c1.5,5.9,12.9,5,11.3,9.6c-2.7,7.6,17.4,12.9,21.2,4.7
		C306.9,277,282.3,268.8,272,269.2z"/>
	<path fill="#B8937F" d="M251.8,497.4c-39.7-4.3-51.7,14.7-44.4,21.8c7.7,7.5,38.1,5.3,54.7,3.9
		C268.7,522.6,261.8,498.5,251.8,497.4z"/>
</g>
</svg>
